Simply-White-Circles/scalable/actions/mail-mark-notjunk.svg

<svg xmlns="http://www.w3.org/2000/svg" width="24" height="24"><path fill="#e6e6e6" d="M20.09 2.755a.286.286 0 0 0-.204.084l-3.125 3.125h-1.833l-.406-2.027h-9.12v13.387l-2.563 2.562a.287.287 0 0 0 0 .407l.868.868a.286.286 0 0 0 .406 0L5.4 19.872v1.294h2.027v-3.32l3.774-3.774h1.901l.406 2.027h7.094V5.964H19.31l1.851-1.85a.287.287 0 0 0 0-.407l-.869-.868a.286.286 0 0 0-.203-.084zM7.427 14.072h1.225l-1.225 1.225z"/></svg>

<?xml version="1.0" encoding="UTF-8" standalone="no"?>
<svg
   xmlns:dc="http://purl.org/dc/elements/1.1/"
   xmlns:cc="http://creativecommons.org/ns#"
   xmlns:rdf="http://www.w3.org/1999/02/22-rdf-syntax-ns#"
   xmlns:svg="http://www.w3.org/2000/svg"
   xmlns="http://www.w3.org/2000/svg"
   xmlns:sodipodi="http://sodipodi.sourceforge.net/DTD/sodipodi-0.dtd"
   xmlns:inkscape="http://www.inkscape.org/namespaces/inkscape"
   width="24"
   height="24"
   version="1.1"
   id="svg4"
   sodipodi:docname="mail-mark-notjunk.svg"
   inkscape:version="0.92.4 (5da689c313, 2019-01-14)">
  <metadata
     id="metadata10">
    <rdf:RDF>
      <cc:Work
         rdf:about="">
        <dc:format>image/svg+xml</dc:format>
        <dc:type
           rdf:resource="http://purl.org/dc/dcmitype/StillImage" />
        <dc:title></dc:title>
      </cc:Work>
    </rdf:RDF>
  </metadata>
  <defs
     id="defs8" />
  <sodipodi:namedview
     pagecolor="#ffffff"
     bordercolor="#666666"
     borderopacity="1"
     objecttolerance="10"
     gridtolerance="10"
     guidetolerance="10"
     inkscape:pageopacity="0"
     inkscape:pageshadow="2"
     inkscape:window-width="1078"
     inkscape:window-height="480"
     id="namedview6"
     showgrid="false"
     inkscape:zoom="9.8333333"
     inkscape:cx="-0.81355932"
     inkscape:cy="12"
     inkscape:window-x="0"
     inkscape:window-y="28"
     inkscape:window-maximized="0"
     inkscape:current-layer="svg4" />
  <path
     d="m 20.09,2.75 a 0.29,0.29 0 0 0 -0.2,0.09 L 16.76,5.96 H 14.93 L 14.53,3.94 H 5.4 V 17.32 L 2.84,19.9 a 0.29,0.29 0 0 0 0,0.4 l 0.87,0.87 a 0.29,0.29 0 0 0 0.4,0 L 5.4,19.88 v 1.3 h 2.03 v -3.32 l 3.77,-3.78 h 1.9 l 0.4,2.03 h 7.1 V 5.96 h -1.29 l 1.85,-1.85 a 0.29,0.29 0 0 0 0,-0.4 L 20.29,2.84 A 0.29,0.29 0 0 0 20.09,2.76 Z M 7.43,14.07 H 8.65 L 7.43,15.3 Z"
     id="path2"
     inkscape:connector-curvature="0"
     style="fill:#e6e6e6" />
</svg>
